svg/u1f64e_1f3fe_200d_2640.svg

<svg viewBox="0 0 128 128" xmlns="http://www.w3.org/2000/svg">
  <g>
    <path id="hair_6_" d="M64.38,3.45c-35.15,0-34.87,32.5-34.87,33.02c0,6.58-0.84,14.01-0.37,21.47 c1.04,16.41,4.61,32.98,10.4,41.03c3.34,4.64,9.8,4.89,9.8,4.89l14.55-0.02l14.55,0.02c0,0,6.46-0.26,9.8-4.89 c5.78-8.02,9.35-24.53,10.4-40.9c0.48-7.5-0.36-14.98-0.36-21.59C98.27,35.95,99.53,3.45,64.38,3.45z" fill="#3C2C23"/>
    <radialGradient id="hairHighlights_1_" cx="63.8866" cy="77.1737" gradientTransform="matrix(1 0 0 -1.1901 0 142.9246)" gradientUnits="userSpaceOnUse" r="41.0001">
      <stop offset="0.7936" stop-color="#554138" stop-opacity="0"/>
      <stop offset="1" stop-color="#554138"/>
    </radialGradient>
    <path id="hairHighlights_7_" d="M64.38,3.45c-35.15,0-34.87,32.5-34.87,33.02 c0,6.58-0.84,14.01-0.37,21.47c1.04,16.41,4.61,32.98,10.4,41.03c3.34,4.64,9.8,4.89,9.8,4.89l14.55-0.02l14.55,0.02 c0,0,6.46-0.26,9.8-4.89c5.77-8.02,9.35-24.51,10.39-40.87c0.48-7.51-0.36-15-0.36-21.62C98.27,35.95,99.53,3.45,64.38,3.45z" display="none" fill="url(#hairHighlights_1_)"/>
    <linearGradient id="SVGID_1_" gradientUnits="userSpaceOnUse" x1="64" x2="64" y1="84.2565" y2="123.6627">
      <stop offset="0" stop-color="#651FFF"/>
      <stop offset="0.5233" stop-color="#5914F2"/>
      <stop offset="1" stop-color="#530EEB"/>
    </linearGradient>
    <path d="M105.85,103.24c-2.11-4.78-8.32-19.66-15.93-23.1C81.66,76.42,64,80.84,64,80.84 s-17.4-4.23-25.66-0.5c-7.61,3.43-14.08,18.12-16.2,22.9c-2.11,4.78-3.8,11.35-1.13,15.38c2.68,4.03,5.93,5.38,11.92,5.38 c3.67,0,53.17,0,61.11,0s10.26-1.34,12.93-5.38C109.65,114.59,107.96,108.02,105.85,103.24z" fill="url(#SVGID_1_)"/>
    <linearGradient id="hand_1_" gradientUnits="userSpaceOnUse" x1="26.3099" x2="53.2703" y1="99.818" y2="99.818">
      <stop offset="0.5" stop-color="#A56C43"/>
      <stop offset="1" stop-color="#8D5738"/>
    </linearGradient>
    <path id="hand_9_" d="M52.88,101.03c0.38-0.12,0.5-0.57,0.28-0.9c-1.54-2.32-5.72-6.76-10.76-7.79 c-3.25-0.67-6.42-0.31-9.15,0.38c-2.4,0.61-5.09,2.23-5.79,3.2c-1.64,2.28,0.37,3.17,0.37,3.17s-2.01,1.41-1.41,2.97 c0.72,1.84,3.24,0.9,3.24,0.9s-1.28,1.17-0.09,2.53c0.99,1.14,3.37,0.35,3.37,0.35s-0.39,0.9,0.77,1.57 c1.57,0.91,3.92-1.18,5.54-1.83c0.88-0.35,2.62-0.96,3.67-1.34C46.16,103.09,50.16,102.28,52.88,101.03z" fill="url(#hand_1_)"/>
    <path d="M47.95,124c11.25-1.44,31.69-10.89,32.27-11.4c0.58-0.51,0.2-1.99,0.2-1.99s12.52-5.18,13.2-4.26 s0.36,1.24-0.57,1.87c-0.66,0.44-11.06,4.66-15.73,7.67c-7.33,4.71-14.24,8.06-14.24,8.06L47.95,124z" fill="#1A237E"/>
    <linearGradient id="hand_2_" gradientUnits="userSpaceOnUse" x1="68.5775" x2="94.0704" y1="104.21" y2="104.21">
      <stop offset="0.5" stop-color="#A56C43"/>
      <stop offset="1" stop-color="#8D5738"/>
    </linearGradient>
    <path id="hand_8_" d="M68.58,98.96c0,0,7.59,3.01,11.85,11.65c0,0,1.88-0.24,4.34-1.06 s3.35-1.65,4.92-1.93c1.57-0.28,3.96-0.34,4.26-0.87c0.8-1.42-2.11-6.15-7.32-7.79C78.41,96.37,68.58,98.96,68.58,98.96z" fill="url(#hand_2_)"/>
    <path id="tone_11_" d="M31.3,106.12c0.35-0.46,1.2-1.23,1.7-1.66c1.55-1.35,3.77-2.52,6.16-3.2 c0.28-0.08,0.58,0.08,0.66,0.37c0.08,0.28-0.08,0.58-0.37,0.66c-2.93,0.83-4.95,2.02-6.51,3.57c0,0-0.27,0.08-0.78,0.2 C31.78,106.14,31.3,106.12,31.3,106.12z" fill="#875334"/>
    <path id="tone_7_" d="M27.91,103.19c2.72-3.21,5.75-4.16,9.1-5.02c0.28-0.07,0.58,0.1,0.65,0.39 s-0.1,0.58-0.39,0.65c-3.16,0.81-5.56,1.77-7.62,3.76c0,0-0.31,0.14-0.73,0.2C28.37,103.25,27.91,103.19,27.91,103.19z" fill="#875334"/>
    <path id="tone_5_" d="M27.03,98.4c1.9-1.7,4.35-2.88,7.63-3.67c0.29-0.06,0.58,0.11,0.65,0.4 c0.07,0.29-0.11,0.58-0.4,0.65c-3.04,0.73-5.32,1.8-7.07,3.34c0,0-0.27-0.09-0.46-0.24C27.19,98.71,27.03,98.4,27.03,98.4z" fill="#875334"/>
    <path id="neck_1_" d="M71.81,77.11H56.19v8.59c0,3.88,3.18,7.03,7.11,7.03h1.42c3.92,0,7.11-3.15,7.11-7.03 L71.81,77.11L71.81,77.11z" fill="#7A4C32"/>
    <path id="head_1_" d="M63.99,13.54c-14.74,0-28.4,10.96-28.4,34.21c0,18.68,11.56,29.72,21.63,33.28 c2.4,0.85,4.71,1.28,6.77,1.28c2.04,0,4.35-0.42,6.73-1.26c10.08-3.55,21.67-14.6,21.67-33.29C92.39,24.51,78.73,13.54,63.99,13.54 z" fill="#A56C43"/>
    <path id="eye" d="M54.1,50.21c0,1.33-0.58,2.53-1.49,3.33H47.1c-0.91-0.8-1.49-2-1.49-3.33 c0-2.43,1.9-4.39,4.24-4.39C52.2,45.82,54.1,47.78,54.1,50.21z" fill="#42312C"/>
    <path id="eye_3_" d="M82.38,50.21c0,1.33-0.58,2.53-1.49,3.33h-5.51c-0.91-0.8-1.49-2-1.49-3.33 c0-2.43,1.9-4.39,4.24-4.39C80.48,45.82,82.38,47.78,82.38,50.21z" fill="#42312C"/>
    <path id="eyebrow" d="M56.24,42.47c-0.8-1.06-2.64-2.59-6.22-2.59c-3.58,0-5.43,1.54-6.22,2.59 c-0.35,0.46-0.27,1.01-0.02,1.33c0.22,0.3,0.89,0.58,1.63,0.34c0.74-0.25,2.19-1,4.6-1.02c2.42,0.02,3.86,0.77,4.6,1.02 c0.74,0.25,1.41-0.03,1.63-0.34C56.51,43.48,56.59,42.94,56.24,42.47z" fill="#42312C"/>
    <path id="eyebrow_3_" d="M84.2,42.47c-0.8-1.06-2.64-2.59-6.22-2.59c-3.58,0-5.43,1.54-6.22,2.59 c-0.35,0.46-0.27,1.01-0.02,1.33c0.22,0.3,0.89,0.58,1.63,0.34c0.74-0.25,2.19-1,4.6-1.02c2.42,0.02,3.86,0.77,4.6,1.02 c0.74,0.25,1.41-0.03,1.63-0.34C84.47,43.48,84.55,42.94,84.2,42.47z" fill="#42312C"/>
    <path id="nose_3_" d="M67.32,58.17c-0.09-0.03-0.18-0.06-0.28-0.07h-6.08c-0.09,0.01-0.19,0.03-0.28,0.07 c-0.55,0.22-0.85,0.79-0.59,1.4c0.26,0.61,1.47,2.31,3.91,2.31c2.44,0,3.66-1.71,3.91-2.31C68.17,58.96,67.87,58.39,67.32,58.17z" fill="#875334"/>
    <path id="mouth_3_" d="M72.25,70.09c-0.41-1.47-4.05-4.81-8.5-4.81c-4.48,0-7.61,3.65-7.99,4.8 c-0.02,0.07-0.09,0.28,0.06,0.4c0.2,0.15,0.45-0.01,1.21-0.5c1.36-0.88,3.9-2.51,6.8-2.51c2.74,0,5.29,1.54,6.81,2.46 c0.71,0.43,1.1,0.67,1.35,0.67c0.07,0,0.13-0.02,0.18-0.06C72.34,70.41,72.28,70.17,72.25,70.09z" fill="#473530"/>
    <path id="tone_8_" d="M63.9,71.88c2.46,0,4.54,1.34,4.34,0.62c-0.21-0.72-2.13-2.51-4.48-2.51 c-2.35,0-4.01,1.91-4.21,2.51C59.36,73.11,61.44,71.88,63.9,71.88z" fill="#875334"/>
    <path id="hair_1_" d="M64.38,3.33c-35.15,0-34.87,32.5-34.87,33.02c0,0-0.84,14.17-0.35,21.71l6.76-0.01 c-0.05-2.5,1.7-17.97,6.93-19.15c19.17-4.31,30.01-14.47,30.01-14.47c2.82,6.16,11.64,12.17,14.81,14.45 c2.6,1.88,3.49,15.9,3.44,19.19h7.51c0-0.04,0.02-0.09,0.02-0.13c0.48-7.5-0.36-21.58-0.36-21.58 C98.27,35.84,99.53,3.33,64.38,3.33z" fill="#3C2C23"/>
    <radialGradient id="hairHighlights_2_" cx="64.1815" cy="73.7718" gradientTransform="matrix(1 0 0 -1.2135 0 143.94)" gradientUnits="userSpaceOnUse" r="42.9265">
      <stop offset="0.7945" stop-color="#554138" stop-opacity="0"/>
      <stop offset="1" stop-color="#554138"/>
    </radialGradient>
    <path id="hairHighlights_6_" d="M64.38,3.33c-35.15,0-34.87,32.5-34.87,33.02 c0,0-0.84,14.17-0.35,21.71l6.76-0.01c-0.05-2.5,1.7-17.97,6.93-19.15c19.17-4.31,30.01-14.47,30.01-14.47 c2.82,6.16,11.64,12.17,14.81,14.45c2.6,1.88,3.49,15.9,3.44,19.19h7.51c0-0.04,0.02-0.09,0.02-0.13 c0.48-7.5-0.36-21.58-0.36-21.58C98.27,35.84,99.53,3.33,64.38,3.33z" fill="url(#hairHighlights_2_)"/>
  </g>
</svg>

<svg viewBox="0 0 128 128" xmlns="http://www.w3.org/2000/svg">
  <defs>
    <linearGradient id="SVGID_1_" gradientUnits="userSpaceOnUse" x1="64" x2="64" y1="84.2565" y2="123.6627">
      <stop offset="0" stop-color="#651FFF"/>
      <stop offset="0.5233" stop-color="#5914F2"/>
      <stop offset="1" stop-color="#530EEB"/>
    </linearGradient>
    <radialGradient id="hairHighlights_1_" cx="63.8866" cy="-42.920914" gradientTransform="matrix(1 0 0 -1.1901 0 0)" gradientUnits="userSpaceOnUse" r="41.0001">
      <stop offset="0.7936" stop-color="#554138" stop-opacity="0"/>
      <stop offset="1" stop-color="#554138"/>
    </radialGradient>
    <linearGradient id="hand_1_" gradientUnits="userSpaceOnUse" x1="26.3099" x2="53.2703" y1="99.818" y2="99.818">
      <stop offset="0.5" stop-color="#A56C43"/>
      <stop offset="1" stop-color="#8D5738"/>
    </linearGradient>
    <linearGradient id="hand_2_" gradientUnits="userSpaceOnUse" x1="68.5775" x2="94.0704" y1="104.21" y2="104.21">
      <stop offset="0.5" stop-color="#A56C43"/>
      <stop offset="1" stop-color="#8D5738"/>
    </linearGradient>
    <radialGradient id="hairHighlights_2_" cx="64.1815" cy="-44.843775" gradientTransform="matrix(1 0 0 -1.2135 0 0)" gradientUnits="userSpaceOnUse" r="42.9265">
      <stop offset="0.7945" stop-color="#554138" stop-opacity="0"/>
      <stop offset="1" stop-color="#554138"/>
    </radialGradient>
  </defs>
  <path id="hair_6_" d="M64.38,3.45 C29.23,3.45 29.51,35.95 29.51,36.47 C29.51,43.05 28.67,50.48 29.14,57.94 C30.18,74.35 33.75,90.92 39.54,98.97 C42.88,103.61 49.34,103.86 49.34,103.86 L63.89,103.84 L78.44,103.86 C78.44,103.86 84.9,103.6 88.24,98.97 C94.02,90.95 97.59,74.44 98.64,58.07 C99.12,50.57 98.28,43.09 98.28,36.48 C98.27,35.95 99.53,3.45 64.38,3.45 Z" fill="#3C2C23"/>
  <path d="M105.85,103.24 C103.74,98.46 97.53,83.58 89.92,80.14 C81.66,76.42 64,80.84 64,80.84 C64,80.84 46.6,76.61 38.34,80.34 C30.73,83.77 24.26,98.46 22.14,103.24 C20.03,108.02 18.34,114.59 21.01,118.62 C23.69,122.65 26.94,124 32.93,124 C36.6,124 86.1,124 94.04,124 C101.98,124 104.3,122.66 106.97,118.62 C109.65,114.59 107.96,108.02 105.85,103.24 Z" fill="url(#SVGID_1_)"/>
  <path id="hand_9_" d="M52.88,101.03 C53.26,100.91 53.38,100.46 53.16,100.13 C51.62,97.81 47.44,93.37 42.4,92.34 C39.15,91.67 35.98,92.03 33.25,92.72 C30.85,93.33 28.16,94.95 27.46,95.92 C25.82,98.2 27.83,99.09 27.83,99.09 C27.83,99.09 25.82,100.5 26.42,102.06 C27.14,103.9 29.66,102.96 29.66,102.96 C29.66,102.96 28.38,104.13 29.57,105.49 C30.56,106.63 32.94,105.84 32.94,105.84 C32.94,105.84 32.55,106.74 33.71,107.41 C35.28,108.32 37.63,106.23 39.25,105.58 C40.13,105.23 41.87,104.62 42.92,104.24 C46.16,103.09 50.16,102.28 52.88,101.03 Z" fill="url(#hand_1_)"/>
  <path d="M47.95,124 C59.2,122.56 79.64,113.11 80.22,112.6 C80.8,112.09 80.42,110.61 80.42,110.61 C80.42,110.61 92.94,105.43 93.62,106.35 C94.3,107.27 93.98,107.59 93.05,108.22 C92.39,108.66 81.99,112.88 77.32,115.89 C69.99,120.6 63.08,123.95 63.08,123.95 L47.95,124 Z" fill="#1A237E"/>
  <path id="hand_8_" d="M68.58,98.96 C68.58,98.96 76.17,101.97 80.43,110.61 C80.43,110.61 82.31,110.37 84.77,109.55 C87.23,108.73 88.12,107.9 89.69,107.62 C91.26,107.34 93.65,107.28 93.95,106.75 C94.75,105.33 91.84,100.6 86.63,98.96 C78.41,96.37 68.58,98.96 68.58,98.96 Z" fill="url(#hand_2_)"/>
  <path id="tone_11_" d="M31.3,106.12 C31.65,105.66 32.5,104.89 33,104.46 C34.55,103.11 36.77,101.94 39.16,101.26 C39.44,101.18 39.74,101.34 39.82,101.63 C39.9,101.91 39.74,102.21 39.45,102.29 C36.52,103.12 34.5,104.31 32.94,105.86 C32.94,105.86 32.67,105.94 32.16,106.06 C31.78,106.14 31.3,106.12 31.3,106.12 Z" fill="#875334"/>
  <path id="tone_7_" d="M27.91,103.19 C30.63,99.98 33.66,99.03 37.01,98.17 C37.29,98.1 37.59,98.27 37.66,98.56 C37.73,98.85 37.56,99.14 37.27,99.21 C34.11,100.02 31.71,100.98 29.65,102.97 C29.65,102.97 29.34,103.11 28.92,103.17 C28.37,103.25 27.91,103.19 27.91,103.19 Z" fill="#875334"/>
  <path id="tone_5_" d="M27.03,98.4 C28.93,96.7 31.38,95.52 34.66,94.73 C34.95,94.67 35.24,94.84 35.31,95.13 C35.38,95.42 35.2,95.71 34.91,95.78 C31.87,96.51 29.59,97.58 27.84,99.12 C27.84,99.12 27.57,99.03 27.38,98.88 C27.19,98.71 27.03,98.4 27.03,98.4 Z" fill="#875334"/>
  <path id="neck_1_" d="M71.81,77.11 L56.19,77.11 L56.19,85.7 C56.19,89.58 59.37,92.73 63.3,92.73 L64.72,92.73 C68.64,92.73 71.83,89.58 71.83,85.7 L71.81,77.11 L71.81,77.11 Z" fill="#7A4C32"/>
  <path id="head_1_" d="M63.99,13.54 C49.25,13.54 35.59,24.5 35.59,47.75 C35.59,66.43 47.15,77.47 57.22,81.03 C59.62,81.88 61.93,82.31 63.99,82.31 C66.03,82.31 68.34,81.89 70.72,81.05 C80.8,77.5 92.39,66.45 92.39,47.76 C92.39,24.51 78.73,13.54 63.99,13.54 Z" fill="#A56C43"/>
  <path id="eye" d="M54.1,50.21 C54.1,51.54 53.52,52.74 52.61,53.54 L47.1,53.54 C46.19,52.74 45.61,51.54 45.61,50.21 C45.61,47.78 47.51,45.82 49.85,45.82 C52.2,45.82 54.1,47.78 54.1,50.21 Z" fill="#42312C"/>
  <path id="eye_3_" d="M82.38,50.21 C82.38,51.54 81.8,52.74 80.89,53.54 L75.38,53.54 C74.47,52.74 73.89,51.54 73.89,50.21 C73.89,47.78 75.79,45.82 78.13,45.82 C80.48,45.82 82.38,47.78 82.38,50.21 Z" fill="#42312C"/>
  <path id="eyebrow" d="M56.24,42.47 C55.44,41.41 53.6,39.88 50.02,39.88 C46.44,39.88 44.59,41.42 43.8,42.47 C43.45,42.93 43.53,43.48 43.78,43.8 C44,44.1 44.67,44.38 45.41,44.14 C46.15,43.89 47.6,43.14 50.01,43.12 C52.43,43.14 53.87,43.89 54.61,44.14 C55.35,44.39 56.02,44.11 56.24,43.8 C56.51,43.48 56.59,42.94 56.24,42.47 Z" fill="#42312C"/>
  <path id="eyebrow_3_" d="M84.2,42.47 C83.4,41.41 81.56,39.88 77.98,39.88 C74.4,39.88 72.55,41.42 71.76,42.47 C71.41,42.93 71.49,43.48 71.74,43.8 C71.96,44.1 72.63,44.38 73.37,44.14 C74.11,43.89 75.56,43.14 77.97,43.12 C80.39,43.14 81.83,43.89 82.57,44.14 C83.31,44.39 83.98,44.11 84.2,43.8 C84.47,43.48 84.55,42.94 84.2,42.47 Z" fill="#42312C"/>
  <path id="nose_3_" d="M67.32,58.17 C67.23,58.14 67.14,58.11 67.04,58.1 L60.96,58.1 C60.87,58.11 60.77,58.13 60.68,58.17 C60.13,58.39 59.83,58.96 60.09,59.57 C60.35,60.18 61.56,61.88 64,61.88 C66.44,61.88 67.66,60.17 67.91,59.57 C68.17,58.96 67.87,58.39 67.32,58.17 Z" fill="#875334"/>
  <path id="mouth_3_" d="M72.25,70.09 C71.84,68.62 68.2,65.28 63.75,65.28 C59.27,65.28 56.14,68.93 55.76,70.08 C55.74,70.15 55.67,70.36 55.82,70.48 C56.02,70.63 56.27,70.47 57.03,69.98 C58.39,69.1 60.93,67.47 63.83,67.47 C66.57,67.47 69.12,69.01 70.64,69.93 C71.35,70.36 71.74,70.6 71.99,70.6 C72.06,70.6 72.12,70.58 72.17,70.54 C72.34,70.41 72.28,70.17 72.25,70.09 Z" fill="#473530"/>
  <path id="tone_8_" d="M63.9,71.88 C66.36,71.88 68.44,73.22 68.24,72.5 C68.03,71.78 66.11,69.99 63.76,69.99 C61.41,69.99 59.75,71.9 59.55,72.5 C59.36,73.11 61.44,71.88 63.9,71.88 Z" fill="#875334"/>
  <path id="hair_1_" d="M64.38,3.33 C29.23,3.33 29.51,35.83 29.51,36.35 C29.51,36.35 28.67,50.52 29.16,58.06 L35.92,58.05 C35.87,55.55 37.62,40.08 42.85,38.9 C62.02,34.59 72.86,24.43 72.86,24.43 C75.68,30.59 84.5,36.6 87.67,38.88 C90.27,40.76 91.16,54.78 91.11,58.07 L98.62,58.07 C98.62,58.03 98.64,57.98 98.64,57.94 C99.12,50.44 98.28,36.36 98.28,36.36 C98.27,35.84 99.53,3.33 64.38,3.33 Z" fill="#3C2C23"/>
  <path id="hairHighlights_6_" d="M64.38,3.33 C29.23,3.33 29.51,35.83 29.51,36.35 C29.51,36.35 28.67,50.52 29.16,58.06 L35.92,58.05 C35.87,55.55 37.62,40.08 42.85,38.9 C62.02,34.59 72.86,24.43 72.86,24.43 C75.68,30.59 84.5,36.6 87.67,38.88 C90.27,40.76 91.16,54.78 91.11,58.07 L98.62,58.07 C98.62,58.03 98.64,57.98 98.64,57.94 C99.12,50.44 98.28,36.36 98.28,36.36 C98.27,35.84 99.53,3.33 64.38,3.33 Z" fill="url(#hairHighlights_2_)"/>
</svg>
